X: 9464
T: Daphne's Trousers
R: waltz
M: 3/4
K: Gmajor
"A"|d>cA GFD|d>cA FGA|d>cA GFD|d>cA FGA|
G G/F/ G/A/ BGD|d B/c/ A/B/ G2 D|G G/F/ G/A/ BGD|d B/c/ A/B/ G2 B|
c c/d/ e B/A/ B/c/ d|c>BA GFD|G G/F/ G/A/ BGD|d B/c/ A/B/ G3|
"B"d2 d d/e/ =f d|g/=f/ e=f d3|d2 d d/e/ =fd|g/=f/ ef d3|
g2 g =f/e/ d=f|g2g =f/e/ dA|d2 d d/e/ =fd|g/f/ e=f d3|
"C"d>cA GFD|d>cA GFE|G/B/ d/B/ c/A/ BGD|c B/c/ A/B/ G2D|
G/B/ d/B/ c/A/ BGD|d B/c/ A/B/ G2 c/d/|e/f/ c/e/ d/c/ d/c/ B/d/ c/B/|
c c/B/ A GFD|G/B/ d/B/ c/A/ BGD|d B/c/ A/B/ G3||

